svgs/thin/gas-pump.svg

<svg xmlns="http://www.w3.org/2000/svg" viewBox="0 0 512 512"><!--! Font Awesome Pro 6.4.2 by @fontawesome - https://fontawesome.com License - https://fontawesome.com/license (Commercial License) Copyright 2023 Fonticons, Inc. --><path d="M256 16H96C69.5 16 48 37.5 48 64V416H304V64c0-26.5-21.5-48-48-48zM48 496H304V432H48v64zm296 16H320 304 48 32 8c-4.4 0-8-3.6-8-8s3.6-8 8-8H32V64C32 28.7 60.7 0 96 0H256c35.3 0 64 28.7 64 64V272h8c39.8 0 72 32.2 72 72v40c0 26.5 21.5 48 48 48s48-21.5 48-48V224h-8c-30.9 0-56-25.1-56-56V72.9l-29.4-27c-3.3-3-3.5-8-.5-11.3s8-3.5 11.3-.5l80.4 73.7c11.6 10.6 18.2 25.6 18.2 41.3V384c0 35.3-28.7 64-64 64s-64-28.7-64-64V344c0-30.9-25.1-56-56-56h-8V496h24c4.4 0 8 3.6 8 8s-3.6 8-8 8zM496 149.1c0-11.2-4.7-21.9-13-29.5L448 87.5V168c0 22.1 17.9 40 40 40h8V149.1zM128 80c-8.8 0-16 7.2-16 16v96c0 8.8 7.2 16 16 16h96c8.8 0 16-7.2 16-16V96c0-8.8-7.2-16-16-16H128zM96 96c0-17.7 14.3-32 32-32h96c17.7 0 32 14.3 32 32v96c0 17.7-14.3 32-32 32H128c-17.7 0-32-14.3-32-32V96z"/></svg>

<svg xmlns="http://www.w3.org/2000/svg" viewBox="0 0 512 512"><!--! Font Awesome Pro 6.1.1 by @fontawesome - https://fontawesome.com License - https://fontawesome.com/license (Commercial License) Copyright 2022 Fonticons, Inc. --><path d="M96 96C96 78.33 110.3 64 128 64H224C241.7 64 256 78.33 256 96V192C256 209.7 241.7 224 224 224H128C110.3 224 96 209.7 96 192V96zM112 96V192C112 200.8 119.2 208 128 208H224C232.8 208 240 200.8 240 192V96C240 87.16 232.8 80 224 80H128C119.2 80 112 87.16 112 96zM344 512H8C3.582 512 0 508.4 0 504C0 499.6 3.582 496 8 496H32V64C32 28.65 60.65 0 96 0H256C291.3 0 320 28.65 320 64V272H328C367.8 272 400 304.2 400 344V384C400 410.5 421.5 432 448 432C474.5 432 496 410.5 496 384V224H488C457.1 224 432 198.9 432 168V72.85L402.6 45.9C399.3 42.91 399.1 37.85 402.1 34.59C405.1 31.34 410.2 31.12 413.4 34.1L493.8 107.8C505.4 118.4 512 133.4 512 149.1V384C512 419.3 483.3 448 448 448C412.7 448 384 419.3 384 384V344C384 313.1 358.9 288 328 288H320V496H344C348.4 496 352 499.6 352 504C352 508.4 348.4 512 344 512zM256 16H96C69.49 16 48 37.49 48 64V416H304V64C304 37.49 282.5 16 256 16zM304 496V432H48V496H304zM483 119.6L448 87.52V168C448 190.1 465.9 208 488 208H496V149.1C496 137.9 491.3 127.2 483 119.6V119.6z"/></svg>
